!!!Rep U0660
!!!Isim(Name): Kara İmiş Şu Antep'in Yazısı
!!!Yore(Region): Gaziantep
!!!Makam: Hüseyni
!!!Arizalar(Accidentals): b-2
!!!Usul: 3/4
**kern	**Dcent
*staff1	*.
*clefG2	*.
*k[b-]	*.
*M3/4	*.
8r	.
16b-	50
16cc	0
8dd	0
ddq	0
eeq	0
ddq	0
eeq	0
4.dd;	0
=1	=1
8dd	0
16ee	0
16dd	0
16ee	0
16cc	0
ccq	0
ddq	0
ccq	0
ddq	0
4cc;	0
ddq	0
eeq	0
16dd	0
16r	.
=2	=2
16dd	0
16b-	50
ccq	0
ddq	0
4cc;	0
8b-	50
16cc	0
16a	0
8b-	50
=3	=3
!!linebreak:default
8r	.
16b-	50
16cc	0
8dd	0
ddq	0
eeq	0
4dd;	0
8b-	50
=4	=4
ccq	0
ddq	0
8cc	0
4cc	0
ddq	0
8b-	50
16a	0
8.a	0
ccq	0
=5	=5
8cc	0
ddq	0
4b-	50
16cc	0
16a	0
8a	0
8r	.
=6	=6
!!linebreak:default
8r	.
16b-	50
16cc	0
8dd	0
ddq	0
eeq	0
4dd;	0
8cc	0
=7	=7
12ee	0
12dd	0
12ee	0
8dd	0
ddq	0
eeq	0
4dd	0
8cc	0
=8	=8
16dd	0
16b-	50
4cc;	0
ddq	0
eeq	0
8dd	0
ddq	0
bbq	0
ccq	0
8b-	50
8r	.
=9	=9
!!linebreak:default
8r	.
16b-	50
16cc	0
8dd	0
4dd	0
8b-	50
=10	=10
12dd	0
12b-	50
12dd	0
8cc	0
4cc;	0
8b-	50
=11	=11
ccq	0
ddq	0
8cc	0
4b;	0
16cc	0
16a	0
4a	0
=12	=12
!!linebreak:default
8r	.
16b-	50
16cc	0
8dd	0
ddq	0
eeq	0
4dd	0
8b-	50
=13	=13
16dd	0
16b-	50
8cc	0
8b-	50
bq	0
ccq	0
4b-	50
ccq	0
8a	0
=14	=14
8cc	0
4b-	50
16cc	0
16a	0
[4a	0
=15	=15
!!linebreak:default
2.a	0
=16	=16
2a]	0
4r	.
=	=
*-	*-
!! Uzun Hava Humdrum Bilgi Bankasi (Uzun Hava Humdrum Database)
!! 
!! Sertan Senturk, Parag Chordia & Erdal Tugcular
!! Georgia Tech Center for Music Technology, 2011
